X:739
T:Helen Black of Inveran
C:Joe Buchanan's Scottish Tome - Page 412.0
I:412 0
C:Jimmie Ritchie
R:Schottische
Z:Carl Allison
L:1/8
M:4/4
K:A
e>d | "A"(c>d)(c>B) "E7"(B>A)"A"(A>c) | "E7"e>fe<c "A"e2 (f>g) | "D"(a>g)(g>f) "D"f>e"E7"e>c | "D"e>f"A"e<c "E7"B2 (e>d) |
"A"c>dc>B "E7"B>AA>c | "E7"e>fd<c "A"e2 (f>g) | "D"a>f"Bm"d<B "E7"e>dc<B | "A"{d}c2 "D"A2 "A"A<A :|
e2 | "A"c>e ((3eee) "D"(f>e)"A"e>c | "A"c>ee>f "A"e2 f>g | "D"(a>g)(g>f) "D"(f>e)"E"(e>c) | "D"c>f"A"e>c "E7"B2 e2 |
"A"c>e ((3eee) "D"(f>e)"A"e>c | c>f"D"f>e "E7"f2 (f>g) | "D"a>fd"Bm"<B "E7"e>dc<B | "A"{d}c2 "D"A2 "A"A/>A/ :|
a2 | "A"(e>c)(c>B) (A>c)(c>e) | (f>c)(c>B) "A"c2 (f>g) | "D"(a>f)(f>d) (A>d)(d>f) | "D"(f>e)"A"(e>c) "E7"B2 a2 |
"A"e>c"E7"c>B "A"(A>c)(c>e) | "D"f>cc>B "A"c2 (f>g) | "D"a>fd<B e>dc<B | "A"{d}c2 "D"A2 "A"A>A :|
a2 | "A"A>c ((3ccc) (A>c)(c>A) | "D"(A>f)e>d "A"c2 (f>g) | "D"(a>g)(f>d) (A>d)(d>f) | "D"(f>e)"A"(e>c) "E7"B2 a2 |
"A"A>c ((3ccc) (A>c)(c>A) | "D"(A>f)e>d "A"c2 (f>g) | "D"(a>f)"Bm"(d<B) "E7"(e>d)(c<B) | "A"{d}c2 "D"A2 "A"A>A a2 |
"A"A>c ((3ccc) (A>c)(c>A) | "D"(A>f)e>d "A"c2 (f>g) | "D"(a>f)(d>B) (A>d)(d>f) | "D"(f>e)"A"(e>c) "E7"B2 a2 |
"A"(A>B)(B>c) "E7"(c>d)(d>e) | "A"(e>d)"D"(d>c) "A"c2 (f>g) | "D"a>f"Bm"d<B "E7"e>dc<B | "A"{d}c2 "D"A2 "A"A<A |]
